main/svg/coalBorder.svg

<svg xmlns="http://www.w3.org/2000/svg" width="32" height="32"><path d="M10 4a6 6 0 0 0-6 6 6 6 0 0 0 6 6 6 6 0 0 0-6 6 6 6 0 0 0 6 6 6 6 0 0 0 6-6 6 6 0 0 0 6 6 6 6 0 0 0 6-6 6 6 0 0 0-6-6 6 6 0 0 0 6-6 6 6 0 0 0-6-6 6 6 0 0 0-6 6 6 6 0 0 0-6-6z" style="fill:#000;stroke-width:.1;stop-color:#000"/></svg>

<?xml version="1.0" encoding="UTF-8" standalone="no"?>
<svg
   width="32"
   height="32"
   version="1.1"
   id="svg8272"
   sodipodi:docname="coalBorder.svg"
   inkscape:version="1.2.2 (b0a8486, 2022-12-01)"
   xmlns:inkscape="http://www.inkscape.org/namespaces/inkscape"
   xmlns:sodipodi="http://sodipodi.sourceforge.net/DTD/sodipodi-0.dtd"
   xmlns="http://www.w3.org/2000/svg"
   xmlns:svg="http://www.w3.org/2000/svg">
  <defs
     id="defs8276" />
  <sodipodi:namedview
     id="namedview8274"
     pagecolor="#505050"
     bordercolor="#ffffff"
     borderopacity="1"
     inkscape:showpageshadow="0"
     inkscape:pageopacity="0"
     inkscape:pagecheckerboard="1"
     inkscape:deskcolor="#505050"
     showgrid="true"
     inkscape:zoom="32.09375"
     inkscape:cx="11.606621"
     inkscape:cy="15.984421"
     inkscape:window-width="2560"
     inkscape:window-height="1412"
     inkscape:window-x="0"
     inkscape:window-y="28"
     inkscape:window-maximized="0"
     inkscape:current-layer="svg8272">
    <inkscape:grid
       type="xygrid"
       id="grid8408"
       empspacing="4" />
  </sodipodi:namedview>
  <path
     id="path8462"
     style="fill:#000000;stroke-width:0.1;stop-color:#000000"
     d="M 10 4 A 6 6 0 0 0 4 10 A 6 6 0 0 0 10 16 A 6 6 0 0 0 4 22 A 6 6 0 0 0 10 28 A 6 6 0 0 0 16 22 A 6 6 0 0 0 22 28 A 6 6 0 0 0 28 22 A 6 6 0 0 0 22 16 A 6 6 0 0 0 28 10 A 6 6 0 0 0 22 4 A 6 6 0 0 0 16 10 A 6 6 0 0 0 10 4 z " />
</svg>
